X:1
T:Per narrarvi
T:Eliseo Ghibel
T:Source : Primo libro de Madrigali a tre voci---Venetia---A.Gardano---1552. ( First print : Venetia ---G.Scotto---1551.) Editor : André Vierendeels (09/11/17). Notes : Original clefs : C4, C4, F4 Editorial accidentals above the staff Original note values have been halved
T:Per narrarvi
T:©
T:©
T:©
T:©
C:Eliseo Ghibel
Z:©
%%score [ 1 2 3 ]
L:1/8
Q:1/4=100
M:2/2
K:C
V:1 treble-8 nm="Tenor 1" snm="T 1"
V:2 treble-8 nm="Tenor 2" snm="T 2"
V:3 bass nm="Bass" snm="B"
V:1
 c6 c2 | c6 BA | B4 e4- | e2 e2 e4 | d6 B2 | c3 B A2 G2- |"^#" G2 F2 G4 |"^#" z2 G4 F2 | %8
w: Per nar-|rar- * *|vi, per|_ nar- rar-|vi, ma-|don- na'el pen sier|_ mi- o,|sol dua|
"^-natural" G2 D2 F2 G2 | D4 d3 d | c2 B2 A2 A2 | B2 d2 c2 B2 | A4 z2 B2 | c4 B2 d2 | e4 d4 | %15
w: co- se de- si-|o, sol dua|co- se de- si-|o, de- si- *|o, da-|na- ri, da-|na- ri,|
 z2 B2 c4- | c2 B2 A2 G2- | G2 F2 G2 D2- | D2 G4 E2- | E2 A3 A F2 | z2 G4 B2- | B2 A3 B c2- | %22
w: da- na-|* ri, da- na-|* * ri, et|_ ve- der|_ ar- de- re|con af-|* fan- * *|
 c2 B2 c4 | d6 d2 | B2 B2 G2 G2 | c4 c3 B | A2 G4 F2 | G2 B4 B2 | d4 c4 | G4 A3 B | cABG A4 | %31
w: * * no,|quan- te|don- ne fur mai|sor- no et|sa- ran- *|no, quan- te|don- ne|fur ma- i|son- no et sa- ran-|
 B4 z2 d2- | d2 d2 e2 e2 | d2 B3 B c2- | c2 d2 e4- | e4 d4- | d8 |] %37
w: no, quan-|* te don- ne|fur mai son- no'et|_ sa- ran-|* no.|_|
V:2
 e6 e2 | e4 d4- | d4 c4- | c2 c2 c4- | c2 BA B2 z d | e3 d c2 B2 | A4 G2 G2 | A2 B2 c4 | %8
w: Per nar-|rar- vi,|_ per|nar- rar- *|* * * vi, ma-|don na'el pensier _|mi- o, el|pen- sier mi-|
 B2 d2 c2 B2 | A4 B2 z2 | z2 G4 F2 |"^-natural" G2 D2 F2 G2 | D4 z2 d2 | e4 d2 B2 | c6 B2 | %15
w: o, el pen- sier|mi- o,|sol dua|co- se de- si-|o, da-|na- ri, da-|na- ri,|
 A2 G4 F2 | G4 z2 B2 | c6 BA | B4 G4 | c4 A4 | d3 d B2 d2- | d2 d2 c2 e2 | f2 d2 e4 | B6 B2 | %24
w: da- na- *|ri, da-|na- * *|ri, et|ve- der|ar- de- re con|_ af- fan- *|* * no,|quan- te|
 d4 c4 | G4 A3 B | cABG A4 | B2 d4 d2 | B2 B2 G2 G2 | c4 c3 B | A2 G4 F2 | G4 B4- | B2 B2 c2 c2 | %33
w: don- ne|fur ma- i|son- no et sa- ran-|no, quan- te|don- ne fur ma-|i son- no'et|sa- ran- *|no, quan-|* te don- ne|
 B2 d3 d e2- | e2 d2 c4- | c4 B4- | B8 |] %37
w: fur mai son- no'et|_ sa- ran-|* no.|_|
V:3
 C,6 C,2 | C,4 G,4- | G,4 C,4- | C,2 C,2 C,4 | G,,8 | z8 | D,4 E,3 D, | C,2 B,,2 A,,4 | %8
w: Per na-|rar- vi,|_ per|_ na- rar-|vi,||ma- don- na'el|pen- sier mi-|
 G,,4 z2 G,2- |"^#" G,2 F,2 G,2 D,2 | F,2 G,2 D,4 |"^#" G,,4 z2 G,2- |"^#" G,2 F,2 G,2 G,2 | %13
w: o sol|_ dua co- se|de- * si-|o, sol|_ dua co- se|
 C,2 C,2 G,2 G,2 | C,4 G,,3 G,, | C,2 B,,G,, A,,4 |"^#" G,,3 G,, C,2 B,,G,, | A,,4 G,,4- | %18
w: de- si- o,, da-|na- ri, da-|na- * * *|ri, da- na- * *|* ri,|
 G,,2 G,,2 C,4 | A,,4 D,3 D, |"^#" G,,4 z2 G,2- | G,2 F,4 E,2 | D,4 C,4 | z4 G,4- | %24
w: _ et ve-|der ar- de-|re, con|_ af- *|fan- no,|quan-|
 G,2 G,2 E,2 E,2 | C,2 C,2 F,4 | F,2 E,2 D,4 | G,,4 G,4- | G,2 G,2 E,2 E,2 | C,2 C,2 F,4 | %30
w: * te don- ne|fur mai son|no'et sa- ran-|no, quan-|* te don- ne|fur mai son-|
 F,2 E,2 D,4 |"^#" G,,4 G,4- | G,2 G,2 C,2 C,2 | G,2 G,3 G, C,2- | C,2 B,,2 C,4- | C,4 G,4- | %36
w: no'et sa- ran-|no, quan-|* te don- ne|fur mai son- no'et|_ sa- ran-|* no,|
 G,8 |] %37
w: _|

